X: 9
T: The Dawning Of The Day
R: barndance
M: 4/4
L: 1/8
K: Dmaj
DE |F2 F2 F2 EF | A2 A2 B2 AF | D2 E2 D2 D2 | D6 A2 |
B3 A B2 d2 | F3 E D2 FG | AF- F2 d2 F2 | E6 FA |
B3 A B2 d2 | F3 E D2 FG | AF- F2 d2 F2 | E6 DE |
F2 F2 F2 EF | A2 A2 B2 AF | D2 E2 D2 D2 | D6 |]


Tune 1441	Setting 27082

